icons/container-24.svg

<svg width="24" height="24" viewBox="0 0 24 24" fill="none" xmlns="http://www.w3.org/2000/svg">
<path fill-rule="evenodd" clip-rule="evenodd" d="M13.152 0.681818C13.8534 0.272727 14.7195 0.272727 15.4209 0.681818L15.4284 0.686189L22.3854 4.96245C22.7362 5.1681 23.0191 5.45983 23.2134 5.80172C23.405 6.1388 23.5106 6.52518 23.5106 6.92638V14.4418C23.5106 15.2527 23.0793 16.0023 22.3784 16.4098L22.3763 16.411L10.412 23.4485L10.408 23.4508C10.0553 23.6554 9.66116 23.7578 9.26728 23.7581C8.87247 23.7583 8.47728 23.6559 8.12371 23.4508L8.09778 23.4358L1.59461 18.9342C0.914143 18.5243 0.498535 17.7862 0.498535 16.9908V9.43814C0.498535 9.04632 0.599404 8.66848 0.782837 8.33718L0.785676 8.33205L0.80021 8.30633C0.993571 7.96959 1.27361 7.68211 1.62054 7.47939L1.62213 7.47846L13.152 0.681818ZM13.9089 1.97683L13.9077 1.97754L2.64763 8.61516L8.89577 12.8622C9.01132 12.9248 9.1387 12.9561 9.26636 12.956C9.40054 12.9559 9.53438 12.9212 9.65447 12.8518L9.65546 12.8512L21.2876 6.04835L14.659 1.97395C14.4261 1.84107 14.141 1.84202 13.9089 1.97683ZM18 9.70872L14.75 11.6094V19.1566L18 17.2449V9.70872ZM19.5 8.83147V16.3626L21.6237 15.1135C21.8632 14.9746 22.0106 14.7186 22.0106 14.4418V7.36316L19.5 8.83147ZM10.4104 14.1474L13.25 12.4867V20.0389L10.0168 21.9407V14.3286C10.1512 14.2817 10.2823 14.2217 10.408 14.1488L10.4104 14.1474ZM8.51682 21.9015V14.3293C8.38174 14.2822 8.25007 14.2221 8.12371 14.1488L8.10054 14.1353L1.99854 9.98767V16.9908C1.99854 17.2661 2.14433 17.5186 2.37785 17.6548L2.40296 17.6694L8.51682 21.9015Z" fill="#24292E"/>
</svg>

<svg xmlns="http://www.w3.org/2000/svg" width="24" height="24" viewBox="0 0 24 24"><path fill-rule="evenodd" d="M13.152.682a2.25 2.25 0 012.269 0l.007.004 6.957 4.276a2.276 2.276 0 011.126 1.964v7.516c0 .81-.432 1.56-1.133 1.968l-.002.001-11.964 7.037-.004.003a2.276 2.276 0 01-2.284 0l-.026-.015-6.503-4.502a2.268 2.268 0 01-1.096-1.943V9.438c0-.392.1-.77.284-1.1l.003-.006.014-.026a2.28 2.28 0 01.82-.827h.002L13.152.681zm.757 1.295h-.001L2.648 8.616l6.248 4.247a.776.776 0 00.758-.01h.001l11.633-6.804-6.629-4.074a.75.75 0 00-.75.003zM18 9.709l-3.25 1.9v7.548L18 17.245V9.709zm1.5-.878v7.532l2.124-1.25a.777.777 0 00.387-.671V7.363L19.5 8.831zm-9.09 5.316l2.84-1.66v7.552l-3.233 1.902v-7.612c.134-.047.265-.107.391-.18l.002-.002zm-1.893 7.754V14.33a2.277 2.277 0 01-.393-.18l-.023-.014-6.102-4.147v7.003c0 .275.145.528.379.664l.025.014 6.114 4.232z"/></svg>
